Papirus/24x24/actions/paint-none.svg

<?xml version="1.0" encoding="UTF-8" standalone="no"?>
<svg
   xmlns:osb="http://www.openswatchbook.org/uri/2009/osb"
   xmlns:dc="http://purl.org/dc/elements/1.1/"
   xmlns:cc="http://creativecommons.org/ns#"
   xmlns:rdf="http://www.w3.org/1999/02/22-rdf-syntax-ns#"
   xmlns:svg="http://www.w3.org/2000/svg"
   xmlns="http://www.w3.org/2000/svg"
   xmlns:sodipodi="http://sodipodi.sourceforge.net/DTD/sodipodi-0.dtd"
   xmlns:inkscape="http://www.inkscape.org/namespaces/inkscape"
   version="1.1"
   id="svg6394"
   viewBox="0 0 24 24"
   height="24"
   width="24"
   inkscape:version="0.91 r13725"
   sodipodi:docname="paint-none.svg">
  <sodipodi:namedview
     pagecolor="#ffffff"
     bordercolor="#666666"
     borderopacity="1"
     objecttolerance="10"
     gridtolerance="10"
     guidetolerance="10"
     inkscape:pageopacity="0"
     inkscape:pageshadow="2"
     inkscape:window-width="1600"
     inkscape:window-height="843"
     id="namedview13"
     showgrid="false"
     inkscape:zoom="9.8333333"
     inkscape:cx="12"
     inkscape:cy="12"
     inkscape:window-x="0"
     inkscape:window-y="0"
     inkscape:window-maximized="1"
     inkscape:current-layer="svg6394" />
  <defs
     id="defs6396">
    <linearGradient
       gradientTransform="matrix(-0.40801424,2.7359005,1.4465395,0.18903615,2588.4859,828.26016)"
       osb:paint="solid"
       id="linearGradient19282">
      <stop
         id="stop19284"
         offset="0"
         style="stop-color:#000000;stop-opacity:1;" />
    </linearGradient>
    <linearGradient
       gradientTransform="matrix(-2.7359006,0.40801425,-0.18903616,-1.4465395,-804.26018,-2564.486)"
       osb:paint="solid"
       id="linearGradient19282-3">
      <stop
         id="stop19284-6"
         offset="0"
         style="stop-color:#000000;stop-opacity:1;" />
    </linearGradient>
    <linearGradient
       id="linearGradient19282-36"
       osb:paint="solid"
       gradientTransform="matrix(-2.73658,0.4081035,-0.1890831,-1.446856,-1254.4599,-3933.7766)">
      <stop
         style="stop-color:#666666;stop-opacity:1;"
         offset="0"
         id="stop19284-7" />
    </linearGradient>
  </defs>
  <metadata
     id="metadata6399">
    <rdf:RDF>
      <cc:Work
         rdf:about="">
        <dc:format>
                    image/svg+xml
                </dc:format>
        <dc:type
           rdf:resource="http://purl.org/dc/dcmitype/StillImage" />
        <dc:title />
      </cc:Work>
    </rdf:RDF>
  </metadata>
  <path
     id="path2473"
     d="m 7.9860487,6.806961 a 1.1836259,1.1836259 0 0 0 -0.824219,2.033203 l 3.1640633,3.16211 -3.1640633,3.162109 a 1.1842662,1.1842662 0 1 0 1.673829,1.675781 l 3.1640623,-3.164062 3.166016,3.164062 a 1.1836259,1.1836259 0 1 0 1.671875,-1.675781 l -3.16211,-3.162109 3.16211,-3.16211 a 1.1836259,1.1836259 0 0 0 -0.859375,-2.033203 1.1836259,1.1836259 0 0 0 -0.8125,0.357422 L 11.999721,10.328446 8.8356587,7.164383 a 1.1836259,1.1836259 0 0 0 -0.84961,-0.357422 z"
     style="color:#000000;font-style:normal;font-variant:normal;font-weight:normal;font-stretch:normal;font-size:medium;line-height:normal;font-family:sans-serif;text-indent:0;text-align:start;text-decoration:none;text-decoration-line:none;text-decoration-style:solid;text-decoration-color:#000000;letter-spacing:normal;word-spacing:normal;text-transform:none;direction:ltr;block-progression:tb;writing-mode:lr-tb;baseline-shift:baseline;text-anchor:start;white-space:normal;clip-rule:nonzero;display:inline;overflow:visible;visibility:visible;opacity:1;isolation:auto;mix-blend-mode:normal;color-interpolation:sRGB;color-interpolation-filters:linearRGB;solid-color:#000000;solid-opacity:1;fill:#5c616c;fill-opacity:1;fill-rule:nonzero;stroke:none;stroke-width:2.36701512;stroke-linecap:round;stroke-linejoin:miter;stroke-miterlimit:4;stroke-dasharray:none;stroke-dashoffset:0;stroke-opacity:1;color-rendering:auto;image-rendering:auto;shape-rendering:auto;text-rendering:auto;enable-background:accumulate" />
</svg>

<?xml version="1.0" encoding="UTF-8" standalone="no"?>
<svg xmlns="http://www.w3.org/2000/svg" viewBox="0 0 24 24">
  <defs>
    <style type="text/css" id="current-color-scheme">
      .ColorScheme-Text {
        color:#5c616c;
      }
      </style>
  </defs>
  <path style="fill:currentColor;opacity:1" class="ColorScheme-Text" d="M 7.9863281 6.8066406 A 1.1836259 1.1836259 0 0 0 7.1621094 8.8398438 L 10.326172 12.001953 L 7.1621094 15.164062 A 1.1842662 1.1842662 0 1 0 8.8359375 16.839844 L 12 13.675781 L 15.166016 16.839844 A 1.1836259 1.1836259 0 1 0 16.837891 15.164062 L 13.675781 12.001953 L 16.837891 8.8398438 A 1.1836259 1.1836259 0 0 0 15.978516 6.8066406 A 1.1836259 1.1836259 0 0 0 15.166016 7.1640625 L 12 10.328125 L 8.8359375 7.1640625 A 1.1836259 1.1836259 0 0 0 7.9863281 6.8066406 z "/>
</svg>
